_site/images/icons/user-exclamation.svg

<svg height="30" viewBox="0 0 31 30" width="31" xmlns="http://www.w3.org/2000/svg"><path d="m19.8529412 15.3882353c1.9052633-1.6492034 3.0000275-4.0448051 3-6.56470589 0-4.87310073-3.9504287-8.82352941-8.8235294-8.82352941-4.87310077 0-8.82352945 3.95042868-8.82352945 8.82352941.02204627 2.53406439 1.15011663 4.93201969 3.0882353 6.56470589-5.04539831 2.2846552-8.28881277 7.3084972-8.29411765 12.8470588 0 .9746202.79008574 1.7647059 1.76470588 1.7647059.97462015 0 1.76470588-.7900857 1.76470588-1.7647059 0-5.8477209 4.74051442-10.5882353 10.58823534-10.5882353 5.8477208 0 10.5882353 4.7405144 10.5882353 10.5882353 0 .9746202.7900857 1.7647059 1.7647058 1.7647059.9746202 0 1.7647059-.7900857 1.7647059-1.7647059-.0209313-5.5592412-3.3024762-10.5886405-8.3823529-12.8470588zm-5.8235294-1.2705882c-2.9238605 0-5.29411768-2.3702572-5.29411768-5.29411769 0-2.92386044 2.37025718-5.29411765 5.29411768-5.29411765 2.9238604 0 5.2941176 2.37025721 5.2941176 5.29411765 0 1.40408729-.5577715 2.75066679-1.5506111 3.74350649-.9928397.9928397-2.3394192 1.5506112-3.7435065 1.5506112zm15-8.82352945c-.9746202 0-1.7647059.79008573-1.7647059 1.76470588v3.52941177c0 .9746201.7900857 1.7647059 1.7647059 1.7647059.9746201 0 1.7647058-.7900858 1.7647058-1.7647059v-3.52941177c0-.97462015-.7900857-1.76470588-1.7647058-1.76470588zm-1.3235294 9.33529415c-.3224713.3381772-.5052645.7857053-.5117648 1.2529411-.0027119.4690641.1814356.919908.5117648 1.2529412.171531.1558781.3684972.2812203.5823529.3705883.4271292.1887825.9140473.1887825 1.3411765 0 .4433475-.1604538.7924874-.5095937.9529411-.9529412.0987907-.2094342.1471414-.4391003.1411765-.6705883.0041693-.7169383-.4258302-1.3651412-1.0879738-1.6400663-.6621436-.2749252-1.4248077-.1219218-1.9296732.3871252z" fill="#0b7a76"/></svg>

<?xml version="1.0" encoding="UTF-8"?>
<svg width="31px" height="30px" viewBox="0 0 31 30" version="1.1" xmlns="http://www.w3.org/2000/svg" xmlns:xlink="http://www.w3.org/1999/xlink">
    <!-- Generator: Sketch 52.6 (67491) - http://www.bohemiancoding.com/sketch -->
    <title>user-exclamation</title>
    <desc>Created with Sketch.</desc>
    <g id="Landing-page" stroke="none" stroke-width="1" fill="none" fill-rule="evenodd">
        <g id="1.1--Home" transform="translate(-571.000000, -5163.000000)" fill="#0B7A76" fill-rule="nonzero">
            <g id="Benefit" transform="translate(92.000000, 4663.000000)">
                <g id="Group-11" transform="translate(78.000000, 498.000000)">
                    <g id="user-exclamation" transform="translate(401.000000, 2.000000)">
                        <path d="M19.8529412,15.3882353 C21.7582045,13.7390319 22.8529687,11.3434302 22.8529412,8.82352941 C22.8529412,3.95042868 18.9025125,0 14.0294118,0 C9.15631103,0 5.20588235,3.95042868 5.20588235,8.82352941 C5.22792862,11.3575938 6.35599898,13.7555491 8.29411765,15.3882353 C3.24871934,17.6728905 0.00530488253,22.6967325 0,28.2352941 C0,29.2099143 0.790085736,30 1.76470588,30 C2.73932603,30 3.52941176,29.2099143 3.52941176,28.2352941 C3.52941176,22.3875732 8.26992618,17.6470588 14.1176471,17.6470588 C19.9653679,17.6470588 24.7058824,22.3875732 24.7058824,28.2352941 C24.7058824,29.2099143 25.4959681,30 26.4705882,30 C27.4452084,30 28.2352941,29.2099143 28.2352941,28.2352941 C28.2143628,22.6760529 24.9328179,17.6466536 19.8529412,15.3882353 Z M14.0294118,14.1176471 C11.1055513,14.1176471 8.73529412,11.7473899 8.73529412,8.82352941 C8.73529412,5.89966897 11.1055513,3.52941176 14.0294118,3.52941176 C16.9532722,3.52941176 19.3235294,5.89966897 19.3235294,8.82352941 C19.3235294,10.2276167 18.7657579,11.5741962 17.7729183,12.5670359 C16.7800786,13.5598756 15.4334991,14.1176471 14.0294118,14.1176471 Z M29.0294118,5.29411765 C28.0547916,5.29411765 27.2647059,6.08420338 27.2647059,7.05882353 L27.2647059,10.5882353 C27.2647059,11.5628554 28.0547916,12.3529412 29.0294118,12.3529412 C30.0040319,12.3529412 30.7941176,11.5628554 30.7941176,10.5882353 L30.7941176,7.05882353 C30.7941176,6.08420338 30.0040319,5.29411765 29.0294118,5.29411765 Z M27.7058824,14.6294118 C27.3834111,14.967589 27.2006179,15.4151171 27.1941176,15.8823529 C27.1914057,16.351417 27.3755532,16.8022609 27.7058824,17.1352941 C27.8774134,17.2911722 28.0743796,17.4165144 28.2882353,17.5058824 C28.7153645,17.6946649 29.2022826,17.6946649 29.6294118,17.5058824 C30.0727593,17.3454286 30.4218992,16.9962887 30.5823529,16.5529412 C30.6811436,16.343507 30.7294943,16.1138409 30.7235294,15.8823529 C30.7276987,15.1654146 30.2976992,14.5172117 29.6355556,14.2422866 C28.973412,13.9673614 28.2107479,14.1203648 27.7058824,14.6294118 Z" id="Shape"></path>
                    </g>
                </g>
            </g>
        </g>
    </g>
</svg>
